src/dark/hiso font dark_x.svg

<svg xmlns="http://www.w3.org/2000/svg" width="90" height="126" viewBox="0 0 90 126"><path fill="#000101" d="M72 27l-36-18-12 30-24-12 18 27-18 45 36 18 12-30 24 12-18-27 18-45zm-37.57 85.86l-30.62-15.31 16.881-42.2 30.619 15.31-16.88 42.2zm1.57-67.86l-9.31-4.66 10.88-27.2 30.62 15.311-16.21 40.519-15.98-23.97z"/></svg>

<svg xmlns="http://www.w3.org/2000/svg" width="90" height="126"><path fill="#000101" d="M72 27L36 9 24 39 0 27l18 27L0 99l36 18 12-30 24 12-18-27 18-45zm-37.57 85.86L3.81 97.55l16.881-42.2L51.31 70.66l-16.88 42.2zM36 45l-9.31-4.66 10.88-27.2 30.62 15.311L51.98 68.97 36 45z"/></svg>
